!!!!SEGMENT: Snf0244-Salve_regina_stella_maris--Munich_19.krn
!!!id: Snf0244
!!!AGN: Motet
!!!voices: 4
!!!COM: Ludwig Senfl
!!!OTL: Salve regina / Stella maris (Munich 19)
**kern	**text	**kern	**text	**kern	**text	**kern	**text
*part4	*part4	*part3	*part3	*part2	*part2	*part1	*part1
*staff4	*staff4	*staff3	*staff3	*staff2	*staff2	*staff1	*staff1
*I"Bassus	*	*I"Tenor	*	*I"Altus	*	*I"Superius	*
*I'B	*	*I'T	*	*I'A	*	*I'S	*
*clefF4	*	*clefGv2	*	*clefGv2	*	*clefG2	*
*k[b-]	*	*k[b-]	*	*k[b-]	*	*k[b-]	*
*F:	*	*F:	*	*F:	*	*F:	*
*M3/1	*	*M3/1	*	*M3/1	*	*M3/1	*
*met(O|)	*	*met(O|)	*	*met(O|)	*	*met(O|)	*
!!section: Versus 1: Salve regina / Stella maris
!!!OMD: Versus 1: Salve regina / Stella maris
=1	=1	=1	=1	=1	=1	=1	=1
0.r	.	0.r	.	1g	Sal-	0.dd	Sal-
.	.	.	.	1f	.	.	.
.	.	.	.	1g	.	.	.
=2	=2	=2	=2	=2	=2	=2	=2
0.r	.	0.r	.	2.c	-ve,	0.ee-X	.
.	.	.	.	4d	.	.	.
.	.	.	.	4e-X	.	.	.
.	.	.	.	4d	.	.	.
.	.	.	.	4c	.	.	.
.	.	.	.	4B-y	.	.	.
.	.	.	.	1c	.	.	.
=3	=3	=3	=3	=3	=3	=3	=3
1G	Sal-	0.d	Stel-	1B-y	sal-	0.dd	.
1F	.	.	.	1A	.	.	.
1G	.	.	.	1B-y	.	.	.
=4	=4	=4	=4	=4	=4	=4	=4
2.C	-ve,	0.e-i	.	1c	-ve,	0.cc	.
4D	.	.	.	.	.	.	.
4E-X	.	.	.	2r	.	.	.
4D	.	.	.	.	.	.	.
4C	.	.	.	2.G	sal-	.	.
4BB-y	.	.	.	.	.	.	.
1C	.	.	.	.	.	.	.
.	.	.	.	4F	.	.	.
.	.	.	.	4G	.	.	.
.	.	.	.	4A	.	.	.
=5	=5	=5	=5	=5	=5	=5	=5
0.BB-y	sal-	0.d	-la	4B-y	.	0.dd	.
.	.	.	.	4A	.	.	.
.	.	.	.	4G	.	.	.
.	.	.	.	4F	.	.	.
.	.	.	.	1G	.	.	.
.	.	.	.	1F	-ve,	.	.
=6	=6	=6	=6	=6	=6	=6	=6
2.C	-ve,	0.c	.	1r	.	0.g	-ve,
4D	.	.	.	.	.	.	.
4E-X	.	.	.	2r	.	.	.
4D	.	.	.	.	.	.	.
4C	.	.	.	2.G	sal-	.	.
4BB-y	.	.	.	.	.	.	.
1C	.	.	.	.	.	.	.
.	.	.	.	4F	.	.	.
.	.	.	.	4G	.	.	.
.	.	.	.	4A	.	.	.
=7	=7	=7	=7	=7	=7	=7	=7
2.G	sal-	0.d	ma-	4B-y	.	0.r	.
.	.	.	.	4A	.	.	.
.	.	.	.	4G	.	.	.
4A	.	.	.	4F	.	.	.
4B-y	.	.	.	2.G	.	.	.
4A	.	.	.	.	.	.	.
4G	.	.	.	.	.	.	.
4F	.	.	.	4A	.	.	.
2.G	.	.	.	4B-y	.	.	.
.	.	.	.	4A	.	.	.
.	.	.	.	4G	.	.	.
4A	.	.	.	4F	.	.	.
=8	=8	=8	=8	=8	=8	=8	=8
4B-y	.	0.G	-ris	2G	.	1.dd	Re-
4A	.	.	.	.	.	.	.
4G	.	.	.	4g	.	.	.
4F	.	.	.	4a	.	.	.
2G	.	.	.	4b-y	.	.	.
.	.	.	.	4a	.	.	.
1.C	-ve	.	.	4g	.	1.ee-i	.
.	.	.	.	4f	.	.	.
.	.	.	.	2.g	-ve,	.	.
.	.	.	.	4a	.	.	.
=9	=9	=9	=9	=9	=9	=9	=9
1.G	Re-	0.r	.	4b-y	.	1.dd	.
.	.	.	.	4a	.	.	.
.	.	.	.	4g	.	.	.
.	.	.	.	4f	.	.	.
.	.	.	.	2g	.	.	.
1A	.	.	.	2c	Re-	1.cc	.
.	.	.	.	2e	-gi-	.	.
2F	.	.	.	2f	.	.	.
=10	=10	=10	=10	=10	=10	=10	=10
1.G	.	0.r	.	2d	.	1.b-y	-gi-
.	.	.	.	2g	-na,	.	.
.	.	.	.	2r	.	.	.
1A	.	.	.	2c	Re-	1.a	.
.	.	.	.	2e	-gi-	.	.
2F	.	.	.	2f	.	.	.
=11	=11	=11	=11	=11	=11	=11	=11
1.G	-gi-	0.r	.	2d	.	1.b-y	.
.	.	.	.	2g	-na,	.	.
.	.	.	.	2r	.	.	.
1A	.	.	.	2c	Re-	1.cc	.
.	.	.	.	2e	-gi-	.	.
2F	.	.	.	2f	.	.	.
=12	=12	=12	=12	=12	=12	=12	=12
2.G	.	0.B-y	a	2d	.	2.b-y	-na
.	.	.	.	2g	-na,	.	.
4F	.	.	.	.	.	4a	.
2E-X	.	.	.	2r	.	2g	.
2D	.	.	.	2d	Re-	2f	.
1E-i	.	.	.	2B-y	-gi-	1g	.
.	.	.	.	2G	.	.	.
=13	=13	=13	=13	=13	=13	=13	=13
1.F	.	0.A	.	1c	-na	0.f	mi-
.	.	.	.	2r	.	.	.
2D	.	.	.	2.f	mi-	.	.
1D	-na	.	.	.	.	.	.
.	.	.	.	4g	.	.	.
.	.	.	.	2a	.	.	.
=14	=14	=14	=14	=14	=14	=14	=14
0.r	.	0.G	.	2.b-y	-se-	1.g	-se-
.	.	.	.	4a	.	.	.
.	.	.	.	2g	.	.	.
.	.	.	.	4f	.	1.b-y	-ri-
.	.	.	.	4e	.	.	.
.	.	.	.	2d	.	.	.
.	.	.	.	2g	.	.	.
=15	=15	=15	=15	=15	=15	=15	=15
1r	.	0A	.	2.c	.	0.cc	-cor-
.	.	.	.	4d	.	.	.
2r	.	.	.	2e	.	.	.
2.F	mi-	.	.	1.f	-ri-	.	.
.	.	1F	tri-	.	.	.	.
4G	.	.	.	.	.	.	.
2A	.	.	.	.	.	.	.
=16	=16	=16	=16	=16	=16	=16	=16
2.B-y	-se-	1G	-ma-	1d	-cor-	0.b-y	.
4A	-ri-	.	.	.	.	.	.
2G	-cor-	1G	-tu	1g	.	.	.
4F	.	.	.	.	.	.	.
4E	.	.	.	.	.	.	.
2D	.	1r	.	2f	.	.	.
2G	-di-	.	.	2d	-di-	.	.
=17	=17	=17	=17	=17	=17	=17	=17
1C	-ae,	0.r	.	4e	-ae,	0.cc	.
.	.	.	.	4d	.	.	.
.	.	.	.	4c	.	.	.
.	.	.	.	4B-y	.	.	.
2r	.	.	.	2A	.	.	.
2.F	mi-	.	.	1.a	mi-	.	.
4G	.	.	.	.	.	.	.
2A	.	.	.	.	.	.	.
=18	=18	=18	=18	=18	=18	=18	=18
2.B-y	-se-	0.d	coe-	2f	.	0.dd	.
.	.	.	.	1b-y	-se-	.	.
4A	-ri-	.	.	.	.	.	.
2G	-cor-	.	.	.	.	.	.
4F	.	.	.	4a	.	.	.
4E	.	.	.	4g	.	.	.
2D	.	.	.	1f	.	.	.
2BB-y	.	.	.	.	.	.	.
=19	=19	=19	=19	=19	=19	=19	=19
0C	.	0c	.	2r	.	0.g	-di-
.	.	.	.	1e	-ri-	.	.
.	.	.	.	4d	.	.	.
.	.	.	.	4c	.	.	.
1G	.	1B-y	-pit	2d	.	.	.
.	.	.	.	2e	.	.	.
=20	=20	=20	=20	=20	=20	=20	=20
1.F	.	0.c	De-	2r	.	0.a	.
.	.	.	.	1f	-cor-	.	.
1.A	.	.	.	4e	.	.	.
.	.	.	.	4d	.	.	.
.	.	.	.	2e	.	.	.
.	.	.	.	2f	.	.	.
=21	=21	=21	=21	=21	=21	=21	=21
2.G	.	0.B-y	-o	2r	.	0.b-y	.
.	.	.	.	2g	-di-	.	.
4A	.	.	.	.	.	.	.
2B-y	.	.	.	2f	.	.	.
2.E-X	.	.	.	2.g	-ae,	.	.
4F	.	.	.	4f	.	.	.
2G	.	.	.	2d	.	.	.
=22	=22	=22	=22	=22	=22	=22	=22
2.F	.	0c	psal-	2r	.	0a	.
.	.	.	.	2f	mi-	.	.
4G	.	.	.	.	.	.	.
2A	.	.	.	2e	-se-	.	.
2F	.	.	.	2f	-ri-	.	.
1E	.	1c	-le-	2g	-cor-	1g	.
.	.	.	.	2G	.	.	.
=23	=23	=23	=23	=23	=23	=23	=23
2.D	.	[0.dl	-re.	2A	.	2f	.
.	.	.	.	2F	.	1a	.
4E	.	.	.	.	.	.	.
2F	.	.	.	2A	.	.	.
2G	.	.	.	2B-y	.	1g	.
1D	-di-	.	.	1A	-di-	.	.
.	.	.	.	.	.	2f#i	.
=24	=24	=24	=24	=24	=24	=24	=24
00G	-ae.	00d]	.	00G	-ae.	00g	-ae.
=25||	=25||	=25||	=25||	=25||	=25||	=25||	=25||
*M2/1	*	*M2/1	*	*M2/1	*	*M2/1	*
*met(C|)	*	*met(C|)	*	*met(C|)	*	*met(C|)	*
!!section: Versus 2: Et in virginali / Vita, dulce
!!!OMD: Versus 2: Et in virginali / Vita, dulce
0r	.	0r	.	0g	Vi-	0r	.
=26	=26	=26	=26	=26	=26	=26	=26
0r	.	0r	.	0f	.	0r	.
=27	=27	=27	=27	=27	=27	=27	=27
0G	Vi-	0r	.	0g	.	0r	.
=28	=28	=28	=28	=28	=28	=28	=28
0F	.	0r	.	1c	-ta,	0r	.
.	.	.	.	2.f	.	.	.
.	.	.	.	4e	.	.	.
=29	=29	=29	=29	=29	=29	=29	=29
0G	.	0d	Vi-	4d	.	1g	Et
.	.	.	.	4c	.	.	.
.	.	.	.	4B-y	.	.	.
.	.	.	.	4A	.	.	.
.	.	.	.	4G	.	1b-y	in
.	.	.	.	4A	.	.	.
.	.	.	.	4B-y	.	.	.
.	.	.	.	4G	.	.	.
=30	=30	=30	=30	=30	=30	=30	=30
2.C	-ta,	0e-X	.	1c	.	1g	vir-
4D	.	.	.	.	.	.	.
4E-X	.	.	.	2.G	.	1g	-gi-
4C	.	.	.	.	.	.	.
2D	.	.	.	.	.	.	.
.	.	.	.	4A	.	.	.
=31	=31	=31	=31	=31	=31	=31	=31
2BB-y	.	0d	.	4B-y	.	1f	.
.	.	.	.	4c	.	.	.
1B-y	.	.	.	4d	.	.	.
.	.	.	.	4e	.	.	.
.	.	.	.	2f	.	1b-y	-na-
2G	.	.	.	2g	.	.	.
=32	=32	=32	=32	=32	=32	=32	=32
2A	.	0c	.	2e	.	0cc	-li
2.F	.	.	.	1a	.	.	.
4G	.	.	.	.	.	.	.
2A	.	.	.	2f	.	.	.
=33	=33	=33	=33	=33	=33	=33	=33
1G	.	1d	.	1g	.	1.b-y	sta-
1r	.	1G	-ta,	2r	.	.	.
.	.	.	.	2g	dul-	[2dd	.
=34	=34	=34	=34	=34	=34	=34	=34
2r	.	1d	dul-	2f	-ce-	2dd]	.
2G	dul-	.	.	2.g	.	4cc	.
.	.	.	.	.	.	4b-y	.
1c	-ce-	1e-i	.	.	.	1cc	.
.	.	.	.	4f	.	.	.
.	.	.	.	4g	.	.	.
.	.	.	.	4a	.	.	.
=35	=35	=35	=35	=35	=35	=35	=35
2B-y	.	1d	.	1b-y	.	1dd	-tu
2G	.	.	.	.	.	.	.
2A	.	1c	.	1a	.	1r	.
2F	.	.	.	.	.	.	.
=36	=36	=36	=36	=36	=36	=36	=36
1G	.	1B-y	-ce-	2d	.	0r	.
.	.	.	.	1g	.	.	.
1D	-do,	1A	.	.	.	.	.
.	.	.	.	2f#i	.	.	.
=37	=37	=37	=37	=37	=37	=37	=37
1r	.	1G	.	1g	-do,	1dd	me-
1D	dul-	1A	.	2r	.	1ff	.
.	.	.	.	2f	dul-	.	.
=38	=38	=38	=38	=38	=38	=38	=38
1G	-ce-	1B-y	.	2g	-ce-	1dd	-ru-
.	.	.	.	2d	.	.	.
1C	.	1c	.	1e	.	1cc	.
=39	=39	=39	=39	=39	=39	=39	=39
2.G	.	2.B-y	-do	1d	-do	[0dd	-it
4A	.	4A	.	.	.	.	.
2B-y	.	2G	.	2r	.	.	.
2BB-y	.	2F	.	2f	spes	.	.
=40	=40	=40	=40	=40	=40	=40	=40
1B-y	.	1G	.	2.d	.	0dd_	.
.	.	.	.	4e	.	.	.
1BB-y	-do	2r	.	1f	.	.	.
.	.	2F	et	.	.	.	.
=41	=41	=41	=41	=41	=41	=41	=41
2.B-y	et	1G	spes	2d	.	0dd]	.
.	.	.	.	2B-y	.	.	.
4A	.	.	.	.	.	.	.
4G	.	1B-y	no-	2.d	.	.	.
4F	.	.	.	.	.	.	.
2G	.	.	.	.	.	.	.
.	.	.	.	4e	.	.	.
=42	=42	=42	=42	=42	=42	=42	=42
2.F	spes	0c	-stra,	2.f	.	0r	.
4E	.	.	.	4g	.	.	.
4C	.	.	.	1e	.	.	.
4D	.	.	.	.	.	.	.
4E	.	.	.	.	.	.	.
4F	.	.	.	.	.	.	.
=43	=43	=43	=43	=43	=43	=43	=43
1G	.	0B-y	.	1.d	no-	0b-y	con-
2r	.	.	.	.	.	.	.
2G	no-	.	.	2e	.	.	.
=44	=44	=44	=44	=44	=44	=44	=44
1F	.	1c	.	1f	-stra,	0a	.
1D	.	1d	.	2r	.	.	.
.	.	.	.	2f	no-	.	.
=45	=45	=45	=45	=45	=45	=45	=45
1E-X	.	1G	sal-	2.B-y	.	1g	-ci-
.	.	.	.	4c	.	.	.
1D	.	1A	.	1d	-stra,	1f	-pe-
=46	=46	=46	=46	=46	=46	=46	=46
1G	-stra,	0B-y	.	2r	.	1g	.
.	.	.	.	1d	sal-	.	.
2r	.	.	.	.	.	1g	-re,
2G	sal-	.	.	2B-y	.	.	.
=47	=47	=47	=47	=47	=47	=47	=47
2F	.	1A	.	2c	.	1r	.
2D	-ve,	.	.	2d	.	.	.
2r	.	1G	.	4B-y	.	2r	.
.	.	.	.	4c	.	.	.
2G	sal-	.	.	4d	.	2b-y	con-
.	.	.	.	4e	.	.	.
=48	=48	=48	=48	=48	=48	=48	=48
2D	.	2F	.	4f	.	2a	-ci-
.	.	.	.	2d	.	.	.
2E	.	2G	.	.	.	1g	-pe-
.	.	.	.	4c	.	.	.
1D	.	1A	.	1d	.	.	.
.	.	.	.	.	.	2f#i	.
=49	=49	=49	=49	=49	=49	=49	=49
00G	-ve.	00G	-ve.	00d	-ve.	00g	-re.
=50||	=50||	=50||	=50||	=50||	=50||	=50||	=50||
*M2/1	*	*M2/1	*	*M2/1	*	*M2/1	*
*met(C|)	*	*met(C|)	*	*met(C|)	*	*met(C|)	*
!!section: Versus 3: Ad te clamamus / Facta mater
!!!OMD: Versus 3: Ad te clamamus / Facta mater
0r	.	0r	.	1g	Ad	0b-y	Ad
.	.	.	.	2d	.	.	.
.	.	.	.	2g	.	.	.
=51	=51	=51	=51	=51	=51	=51	=51
1r	.	0r	.	2f	.	0cc	.
.	.	.	.	4e	.	.	.
.	.	.	.	4d	.	.	.
1c	Ad	.	.	1e	.	.	.
=52	=52	=52	=52	=52	=52	=52	=52
2.G	te	0d	Fa-	2d	.	0dd	te
.	.	.	.	1g	te	.	.
4A	.	.	.	.	.	.	.
4B-y	.	.	.	.	.	.	.
4G	.	.	.	.	.	.	.
[2B-y	.	.	.	4f	.	.	.
.	.	.	.	4e	.	.	.
=53	=53	=53	=53	=53	=53	=53	=53
2B-]	.	0f	-cta	1d	.	1r	.
4A	.	.	.	.	.	.	.
4G	.	.	.	.	.	.	.
2A	.	.	.	2r	.	1cc	cla-
2F	.	.	.	2f	cla-	.	.
=54	=54	=54	=54	=54	=54	=54	=54
1c	cla-	0g	Ma-	2e	-ma-	1cc	-ma-
.	.	.	.	4d	.	.	.
.	.	.	.	4c	.	.	.
1G	.	.	.	1d	.	1b-y	.
=55	=55	=55	=55	=55	=55	=55	=55
1A	-ma-	0f	-ter	1c	-mus,	1cc	.
1B-y	.	.	.	1r	.	1dd	.
=56	=56	=56	=56	=56	=56	=56	=56
1G	-mus,	0g	ve-	2r	.	0b-y	-mus,
.	.	.	.	2B-y	cla-	.	.
2r	.	.	.	4G	-ma-	.	.
.	.	.	.	4A	.	.	.
2G	cla-	.	.	4B-y	.	.	.
.	.	.	.	4c	.	.	.
=57	=57	=57	=57	=57	=57	=57	=57
4D	-ma-	1f	-rum	1d	.	0a	.
4E	.	.	.	.	.	.	.
4F	.	.	.	.	.	.	.
4G	.	.	.	.	.	.	.
1A	.	1e	.	1c	.	.	.
=58	=58	=58	=58	=58	=58	=58	=58
2B-y	.	1d	.	2G	.	1r	.
2G	.	.	.	1g	.	.	.
1A	.	1c	so-	.	.	1cc	e-
.	.	.	.	2f	-mus,	.	.
=59	=59	=59	=59	=59	=59	=59	=59
1G	-mus,	1d	.	2r	.	1b-y	-xu-
.	.	.	.	1g	e-	.	.
1D	.	1d	-lem	.	.	1a	.
.	.	.	.	2f	-xu-	.	.
=60	=60	=60	=60	=60	=60	=60	=60
2.G	e-	0r	.	2.b-y	.	1.g	-les,
4A	.	.	.	4a	.	.	.
2B-y	.	.	.	4g	.	.	.
.	.	.	.	4f	.	.	.
2c	.	.	.	2e	.	2a	.
=61	=61	=61	=61	=61	=61	=61	=61
2B-y	.	0r	.	2d	.	2b-y	.
2A	.	.	.	2c	.	1cc	.
1G	-xu-	.	.	1d	.	.	.
.	.	.	.	.	.	2bnXi	.
=62	=62	=62	=62	=62	=62	=62	=62
1F	-les,	0f	ge-	1a	-les,	0cc	.
2r	.	.	.	2r	.	.	.
[2F	fi-	.	.	[2a	fi-	.	.
=63	=63	=63	=63	=63	=63	=63	=63
2F]	.	0c	-nu-	2a]	.	0r	.
4E	.	.	.	4g	.	.	.
4D	.	.	.	4f	.	.	.
2C	.	.	.	2e	.	.	.
2F	.	.	.	2a	-li-	.	.
=64	=64	=64	=64	=64	=64	=64	=64
1BB-y	.	0B-y	.	1d	-i,	1f	fi-
[1E-X	.	.	.	2r	.	1g	.
.	.	.	.	2B-y	fi-	.	.
=65	=65	=65	=65	=65	=65	=65	=65
2E-]	.	1c	-it	2.e-X	.	0g	-li-
2C	-li-	.	.	.	.	.	.
.	.	.	.	4d	.	.	.
1C	-i	1e-X	iu-	2.c	.	.	.
.	.	.	.	4B-y	.	.	.
=66	=66	=66	=66	=66	=66	=66	=66
2.D	E-	1d	.	2A	.	0f	.
.	.	.	.	2B-y	.	.	.
4E	.	.	.	.	.	.	.
1F	.	[1c	-sti-	1A	-li-	.	.
=67	=67	=67	=67	=67	=67	=67	=67
1C	.	1c]	.	1G	-i	0g	.
[1G	.	1d	-ti-	2r	.	.	.
.	.	.	.	2B-y	E-	.	.
=68	=68	=68	=68	=68	=68	=68	=68
1G]	.	1d	-ae.	2G	.	1b-y	-i
.	.	.	.	2g	.	.	.
1A	.	1r	.	2e	.	1cc	.
.	.	.	.	2f	.	.	.
=69	=69	=69	=69	=69	=69	=69	=69
1.G	.	[0dl	-ae.	2.B-y	.	1.b-y	E-
.	.	.	.	4c	.	.	.
.	.	.	.	4d	.	.	.
.	.	.	.	4e	.	.	.
2D	.	.	.	4f	.	[2a	.
.	.	.	.	4e	.	.	.
=70	=70	=70	=70	=70	=70	=70	=70
2F	.	0d_	.	4d	.	2a]	.
.	.	.	.	4c	.	.	.
2G	.	.	.	4B-y	.	1g	.
.	.	.	.	8AL	.	.	.
.	.	.	.	8GJ	.	.	.
1D	.	.	.	1A	.	.	.
.	.	.	.	.	.	2f#i	.
=71	=71	=71	=71	=71	=71	=71	=71
00G	-vae.	00d]	.	00G	-vae.	00g	-vae.
=72||	=72||	=72||	=72||	=72||	=72||	=72||	=72||
*M2/1	*	*M2/1	*	*M2/1	*	*M2/1	*
*met(C|)	*	*met(C|)	*	*met(C|)	*	*met(C|)	*
!!section: Versus 4: Ad te suspiramus / Educavit
!!!OMD: Versus 4: Ad te suspiramus / Educavit
0r	.	0r	.	0f	Ad	0r	.
=73	=73	=73	=73	=73	=73	=73	=73
0r	.	0r	.	0g	.	0r	.
=74	=74	=74	=74	=74	=74	=74	=74
0F	Ad	0r	.	1a	te	0r	.
.	.	.	.	2r	.	.	.
.	.	.	.	2a	su-	.	.
=75	=75	=75	=75	=75	=75	=75	=75
0G	.	0r	.	2g	.	0b-y	Ad
.	.	.	.	4f	.	.	.
.	.	.	.	4e	.	.	.
.	.	.	.	1d	.	.	.
=76	=76	=76	=76	=76	=76	=76	=76
0A	te	0r	.	2c	.	0cc	.
.	.	.	.	1f	-spi-	.	.
.	.	.	.	2e	.	.	.
=77	=77	=77	=77	=77	=77	=77	=77
1.B-y	su-	1r	.	2.d	-ra-	0dd	te
.	.	.	.	4e	.	.	.
.	.	[1d	E-	2f	.	.	.
2BB-y	-spi-	.	.	2g	.	.	.
=78	=78	=78	=78	=78	=78	=78	=78
0BB-y	-ra-	1d]	.	2f	.	1r	.
.	.	.	.	4B-y	.	.	.
.	.	.	.	4c	.	.	.
.	.	1B-y	-du-	4d	.	[1ff	su-
.	.	.	.	4e	.	.	.
.	.	.	.	4f	.	.	.
.	.	.	.	4g	.	.	.
=79	=79	=79	=79	=79	=79	=79	=79
0F	.	0c	-ca-	2a	.	1ff]	.
.	.	.	.	1b-y	.	.	.
.	.	.	.	.	.	1cc	-spi-
.	.	.	.	2a	.	.	.
=80	=80	=80	=80	=80	=80	=80	=80
1BB-y	-mus,	0B-y	-vit	1b-y	-mus,	[0dd	-ra-
[1B-y	su-	.	.	2r	.	.	.
.	.	.	.	2b-y	su-	.	.
=81	=81	=81	=81	=81	=81	=81	=81
1B-]	.	0r	.	2f	-spi-	1dd]	.
.	.	.	.	2g	-ra-	.	.
1F	-spi-	.	.	1a	.	1cc	.
=82	=82	=82	=82	=82	=82	=82	=82
1G	-ra-	0r	.	2.d	.	1b-y	.
.	.	.	.	4e	.	.	.
1F	.	.	.	4f	.	2.a	.
.	.	.	.	4g	.	.	.
.	.	.	.	2a	.	.	.
.	.	.	.	.	.	4b-y	.
=83	=83	=83	=83	=83	=83	=83	=83
2E	.	0r	.	2g	.	2cc	.
2D	.	.	.	2f	.	1dd	.
2G	.	.	.	1e	.	.	.
2A	.	.	.	.	.	2cc#i	.
=84	=84	=84	=84	=84	=84	=84	=84
1D	-mus,	0d	su-	1f	.	1dd	-mus,
1G	ge-	.	.	1B-y	-mus,	1g	ge-
=85	=85	=85	=85	=85	=85	=85	=85
0G	-men-	0B-y	-am	2r	.	0b-y	-men-
.	.	.	.	2d	ge-	.	.
.	.	.	.	1g	-men-	.	.
=86	=86	=86	=86	=86	=86	=86	=86
1F	-tes	0A	.	2c	-tes	0cc	-tes
.	.	.	.	2f	et	.	.
2r	.	.	.	2.c	flen-	.	.
2F	et	.	.	.	.	.	.
.	.	.	.	4d	.	.	.
=87	=87	=87	=87	=87	=87	=87	=87
2C	flen-	1G	.	2e	.	0r	.
2E	.	.	.	1c	.	.	.
1D	.	1F	pro-	.	.	.	.
.	.	.	.	2BnXi	.	.	.
=88	=88	=88	=88	=88	=88	=88	=88
1C	-tes,	1G	.	2c	.	1r	.
.	.	.	.	2e	.	.	.
2r	.	1G	-lem	2d	.	1g	et
2G	et	.	.	[2g	.	.	.
=89	=89	=89	=89	=89	=89	=89	=89
1D	flen-	0r	.	2g]	.	1a	.
.	.	.	.	2f	.	.	.
[1G	.	.	.	2.g	.	[1b-y	flen-
.	.	.	.	4f	.	.	.
=90	=90	=90	=90	=90	=90	=90	=90
2G]	.	0r	.	4e-X	.	2b-]	.
.	.	.	.	4d	.	.	.
2F	.	.	.	1d	.	2a	.
1E-X	.	.	.	.	.	1g	.
.	.	.	.	2c	.	.	.
=91	=91	=91	=91	=91	=91	=91	=91
1D	-tes	0r	.	1d	-tes	1f	-tes
1E-i	in	.	.	2r	.	1g	in
.	.	.	.	2B-y	in	.	.
=92	=92	=92	=92	=92	=92	=92	=92
0E-i	hac	0G	Vir-	2.B-y	hac	0g	hac
.	.	.	.	8AL	.	.	.
.	.	.	.	8GJ	.	.	.
.	.	.	.	2.B-y	.	.	.
.	.	.	.	4c	.	.	.
=93	=93	=93	=93	=93	=93	=93	=93
0BB-y	.	[0B-y	-go	2.d	.	0f	.
.	.	.	.	8cL	.	.	.
.	.	.	.	8B-yJ	.	.	.
.	.	.	.	2.d	.	.	.
.	.	.	.	4e	.	.	.
=94	=94	=94	=94	=94	=94	=94	=94
1BB-y	la-	0B-]	.	2.f	.	0b-y	.
.	.	.	.	8eL	.	.	.
.	.	.	.	8dJ	.	.	.
1E-i	.	.	.	[1g	.	.	.
=95	=95	=95	=95	=95	=95	=95	=95
1C	-cri-	0r	.	2g]	.	0cc	la-
.	.	.	.	4f	.	.	.
.	.	.	.	4e	.	.	.
1F	.	.	.	[1a	.	.	.
=96	=96	=96	=96	=96	=96	=96	=96
1D	-ma-	0r	.	2a]	.	0dd	.
.	.	.	.	4g	.	.	.
.	.	.	.	4f	.	.	.
1G	.	.	.	1b-y	la-	.	.
=97	=97	=97	=97	=97	=97	=97	=97
1C	-rum,	1c	ple-	2a	-cri-	0cc	-cri-
.	.	.	.	1g	-ma-	.	.
1r	.	1A	-na	.	.	.	.
.	.	.	.	2f#i	.	.	.
=98	=98	=98	=98	=98	=98	=98	=98
2r	.	1G	.	2g	.	1b-y	-ma-
1G	la-	.	.	2.d	.	.	.
.	.	1r	.	.	.	1a	.
.	.	.	.	4e	.	.	.
2F	-cri-	.	.	2f	.	.	.
=99	=99	=99	=99	=99	=99	=99	=99
2.G	-ma-	0r	.	2B-y	.	0b-y	-rum
.	.	.	.	2.d	.	.	.
4A	.	.	.	.	.	.	.
1B-y	.	.	.	.	.	.	.
.	.	.	.	4e	.	.	.
.	.	.	.	4f	.	.	.
.	.	.	.	4g	.	.	.
=100	=100	=100	=100	=100	=100	=100	=100
0A	-rum	1c	gra-	2a	.	0cc	.
.	.	.	.	2f	.	.	.
.	.	1c	-ti-	1e	-rum	.	.
=101	=101	=101	=101	=101	=101	=101	=101
1G	val-	[0dl	-ae.	2r	.	1b-y	val-
.	.	.	.	2g	val-	.	.
2D	.	.	.	4f	.	1a	.
.	.	.	.	4e	.	.	.
2F	.	.	.	4d	.	.	.
.	.	.	.	4c	.	.	.
=102	=102	=102	=102	=102	=102	=102	=102
1G	.	0d_	.	4B-y	.	2g	.
.	.	.	.	4G	.	.	.
.	.	.	.	2B-y	.	1g	.
1D	.	.	.	1A	.	.	.
.	.	.	.	.	.	2f#i	.
=103	=103	=103	=103	=103	=103	=103	=103
00G	-le.	00d]	.	00G	-le.	00g	-le.
=104||	=104||	=104||	=104||	=104||	=104||	=104||	=104||
*M2/1	*	*M2/1	*	*M2/1	*	*M2/1	*
*met(C|)	*	*met(C|)	*	*met(C|)	*	*met(C|)	*
!!section: Versus 5: Stabat autem / Eia ergo
!!!OMD: Versus 5: Stabat autem / Eia ergo
0B-y	E-	0r	.	0f	E-	0r	.
=105	=105	=105	=105	=105	=105	=105	=105
0E-X	-ia	0r	.	0g	.	0r	.
=106	=106	=106	=106	=106	=106	=106	=106
1BB-y	er-	0B-y	E-	0f	-ia	0r	.
1D	.	.	.	.	.	.	.
=107	=107	=107	=107	=107	=107	=107	=107
0C	-go,	0c	.	0e	.	0r	.
=108	=108	=108	=108	=108	=108	=108	=108
1r	.	0B-y	-ia	0g	er-	0r	.
1G	e-	.	.	.	.	.	.
=109	=109	=109	=109	=109	=109	=109	=109
2F	-ia	0A	.	0a	-go,	0r	.
2.D	er-	.	.	.	.	.	.
4E	.	.	.	.	.	.	.
4F	.	.	.	.	.	.	.
4G	.	.	.	.	.	.	.
=110	=110	=110	=110	=110	=110	=110	=110
2A	.	0c	er-	1r	.	0r	.
2.F	.	.	.	.	.	.	.
.	.	.	.	1f	e-	.	.
4G	.	.	.	.	.	.	.
2A	.	.	.	.	.	.	.
=111	=111	=111	=111	=111	=111	=111	=111
2G	-go,	0d	-go,	0g	.	0b-y	Sta-
2.G	e-	.	.	.	.	.	.
4A	.	.	.	.	.	.	.
4B-y	.	.	.	.	.	.	.
4G	.	.	.	.	.	.	.
=112	=112	=112	=112	=112	=112	=112	=112
2A	.	1r	.	1f	-ia	0cc	.
2F	-ia	.	.	.	.	.	.
1c	er-	[1g	Ad-	1e	.	.	.
=113	=113	=113	=113	=113	=113	=113	=113
1G	-go,	1g]	.	1g	er-	0dd	-bat
1r	.	1d	-vo-	1a	-go,	.	.
=114	=114	=114	=114	=114	=114	=114	=114
0c	Ad-	0e-X	-ca-	2r	.	0cc	au-
.	.	.	.	1g	Ad-	.	.
.	.	.	.	2g	-vo-	.	.
=115	=115	=115	=115	=115	=115	=115	=115
0G	-vo-	0d	.	2.g	-ca-	0b-y	-tem
.	.	.	.	4a	.	.	.
.	.	.	.	2b-y	.	.	.
.	.	.	.	[2g	.	.	.
=116	=116	=116	=116	=116	=116	=116	=116
1A	-ca-	1c	.	2g]	.	0r	.
.	.	.	.	2f	.	.	.
2.G	.	1d	.	2g	.	.	.
.	.	.	.	2b-y	.	.	.
4D	.	.	.	.	.	.	.
=117	=117	=117	=117	=117	=117	=117	=117
2F	.	2c	-ta	2a	.	0r	.
2G	.	2B-y	.	1g	.	.	.
1D	-ta	1A	.	.	.	.	.
.	.	.	.	2f#i	.	.	.
=118	=118	=118	=118	=118	=118	=118	=118
1G	no-	1G	.	0g	-ta	0r	.
1E	.	1r	.	.	.	.	.
=119	=119	=119	=119	=119	=119	=119	=119
1G	-stra,	1r	.	2r	.	0r	.
.	.	.	.	2g	no-	.	.
1A	.	1c	no-	2e	.	.	.
.	.	.	.	2a	-stra,	.	.
=120	=120	=120	=120	=120	=120	=120	=120
2r	.	1A	.	2r	.	0cc	cum
2.F	no-	.	.	1a	no-	.	.
.	.	1c	-stra,	.	.	.	.
4G	.	.	.	.	.	.	.
2A	.	.	.	2f	.	.	.
=121	=121	=121	=121	=121	=121	=121	=121
0G	-stra,	0d	.	1g	-stra,	0b-y	pen-
.	.	.	.	2r	.	.	.
.	.	.	.	2g	il-	.	.
=122	=122	=122	=122	=122	=122	=122	=122
1r	.	1r	.	1a	-los	1cc	-den-
[1G	il-	[1g	il-	[1b-y	tu-	1dd	.
=123	=123	=123	=123	=123	=123	=123	=123
1G]	.	1g]	.	2b-]	.	0b-y	-te
.	.	.	.	2.B-y	.	.	.
1G	-los	1g	-los	.	.	.	.
.	.	.	.	4G	.	.	.
.	.	.	.	4B-y	.	.	.
.	.	.	.	4c	.	.	.
=124	=124	=124	=124	=124	=124	=124	=124
2r	.	0f	tu-	1d	.	[0a	.
2.D	tu-	.	.	.	.	.	.
.	.	.	.	2A	.	.	.
4E	.	.	.	.	.	.	.
4F	.	.	.	[2d	.	.	.
4G	.	.	.	.	.	.	.
=125	=125	=125	=125	=125	=125	=125	=125
1A	.	1e	.	2d]	.	0a]	.
.	.	.	.	2c#i	.	.	.
2D	.	1f	.	1d	-os,	.	.
2d	.	.	.	.	.	.	.
=126	=126	=126	=126	=126	=126	=126	=126
2.e-X	.	2.g	.	1r	.	0r	.
4d	.	4f	.	.	.	.	.
4c	.	4e	.	1g	il-	.	.
4B-y	.	4d	.	.	.	.	.
[2c	.	[2e	.	.	.	.	.
=127	=127	=127	=127	=127	=127	=127	=127
4c]	.	4e]	.	2g	-los	0r	.
4G	.	4d	.	.	.	.	.
2B-y	.	1d	.	1g	tu-	.	.
1A	.	.	.	.	.	.	.
.	.	2c	.	2f	.	.	.
=128	=128	=128	=128	=128	=128	=128	=128
2.G	.	1d	-os	2g	.	0r	.
.	.	.	.	1d	.	.	.
4F	.	.	.	.	.	.	.
1E	.	1g	mi-	.	.	.	.
.	.	.	.	2c	.	.	.
=129	=129	=129	=129	=129	=129	=129	=129
1D	-os	1f	-se-	1d	-os	0r	.
1r	.	2d	-ri-	2f	mi-	.	.
.	.	[2e-X	.	[2g	-se-	.	.
=130	=130	=130	=130	=130	=130	=130	=130
1r	.	2e-]	.	4g]	.	0r	.
.	.	.	.	4a	-ri-	.	.
.	.	2d	.	1b-y	-cor-	.	.
2r	.	1c	.	.	.	.	.
2F	mi-	.	.	2a	.	.	.
=131	=131	=131	=131	=131	=131	=131	=131
2.G	-se-	1B-y	.	2.b-y	.	0r	.
4A	.	.	.	4g	.	.	.
2B-y	-ri-	[1B-y	-cor-	2f	.	.	.
[2E-X	-cor-	.	.	[2g	.	.	.
=132	=132	=132	=132	=132	=132	=132	=132
2E-]	.	1B-]	.	2g]	.	1r	.
2D	.	.	.	2f	.	.	.
1C	.	1c	.	1e-X	.	1cc	cru-
=133	=133	=133	=133	=133	=133	=133	=133
*M3/1	*	*	*	*M3/1	*	*	*
*met(3)	*	*	*	*met(3)	*	*	*
*Xtuplet	*	*	*	*Xtuplet	*	*	*
3%2G	.	0d	.	3.d	.	1b-y	-cis
.	.	.	.	6e-i	.	.	.
3%2D	.	.	.	3f	.	.	.
.	.	.	.	3F	.	1a	.
3%2F	.	.	.	3.A	.	.	.
.	.	.	.	6B-y	.	.	.
=134	=134	=134	=134	=134	=134	=134	=134
*M2/1	*	*	*	*M2/1	*	*	*
*met(C|)	*	*	*	*met(C|)	*	*	*
*Tuplet	*	*	*	*Tuplet	*	*	*
1C	-des,	0e-i	.	1c	.	[0g	.
2r	.	.	.	2.G	.	.	.
2C	mi-	.	.	.	.	.	.
.	.	.	.	4A	.	.	.
=135	=135	=135	=135	=135	=135	=135	=135
2G	-se-	2d	.	2B-y	.	0g_	.
2C	-ri-	2c	.	1c	.	.	.
1G	-cor-	1d	-des	.	.	.	.
.	.	.	.	2B-y	.	.	.
=136	=136	=136	=136	=136	=136	=136	=136
1C	-des	1c	.	1e-X	.	0g]	.
[1E-X	o-	[1G	o-	1B-y	-des	.	.
=137	=137	=137	=137	=137	=137	=137	=137
1E-]	.	1G]	.	2r	.	1r	.
.	.	.	.	2B-y	o-	.	.
1C	-cu-	1A	.	2c	.	1cc	in
.	.	.	.	2e-i	-cu-	.	.
=138	=138	=138	=138	=138	=138	=138	=138
1BB-y	-los	1B-y	.	1d	-los,	0f	pa-
1F	.	1A	.	2r	.	.	.
.	.	.	.	2c	o-	.	.
=139	=139	=139	=139	=139	=139	=139	=139
0r	.	1G	.	2d	.	1g	.
.	.	.	.	2B-y	.	.	.
.	.	1G	-cu-	2d	.	1b-y	-ti-
.	.	.	.	2e	-cu-	.	.
=140	=140	=140	=140	=140	=140	=140	=140
1r	.	1F	-los	1f	-los	0a	-bu-
2r	.	2r	.	2r	.	.	.
2D	ad	2F	ad	2f	ad	.	.
=141	=141	=141	=141	=141	=141	=141	=141
2.E-i	nos,	1G	.	1B-y	nos	1g	-lo,
4D	.	.	.	.	.	.	.
1C	.	1A	.	2c	.	1r	.
.	.	.	.	2e-X	.	.	.
=142	=142	=142	=142	=142	=142	=142	=142
1BB-y	.	1B-y	.	2d	.	0r	.
.	.	.	.	1B-y	.	.	.
2r	.	1c	nos	.	.	.	.
2F	ad	.	.	2A	.	.	.
=143	=143	=143	=143	=143	=143	=143	=143
2.G	nos,	1B-y	.	2B-y	.	1r	.
.	.	.	.	2d	.	.	.
4F	.	.	.	.	.	.	.
1E-i	.	1c	.	2.G	con-	1cc	in
.	.	.	.	4A	.	.	.
=144	=144	=144	=144	=144	=144	=144	=144
1D	.	1d	.	2B-y	-ver-	1f	pa-
.	.	.	.	2A	.	.	.
1r	.	[1G	con-	2.B-y	-te,	1g	.
.	.	.	.	4c	.	.	.
=145	=145	=145	=145	=145	=145	=145	=145
1r	.	1G]	.	0d	.	1b-y	-ti-
1D	ad	1A	.	.	.	1a	-bu-
=146	=146	=146	=146	=146	=146	=146	=146
1G	nos	0B-y	-ver-	2r	.	1g	-lo,
.	.	.	.	1d	con-	.	.
1G	con-	.	.	.	.	1r	.
.	.	.	.	2B-y	.	.	.
=147	=147	=147	=147	=147	=147	=147	=147
1F	-ver-	0A	.	1c	-ver-	1cc	in
1D	-te,	.	.	1d	-te,	1f	pa-
=148	=148	=148	=148	=148	=148	=148	=148
0r	.	0G	.	2r	.	1g	.
.	.	.	.	2.B-y	con-	.	.
.	.	.	.	.	.	1b-y	-ti-
.	.	.	.	4c	.	.	.
.	.	.	.	4d	.	.	.
.	.	.	.	4e	.	.	.
=149	=149	=149	=149	=149	=149	=149	=149
1r	.	1F	.	1f	.	1a	-bu-
2r	.	1G	-te,	2.B-y	.	[1g	-lo,
[2G	ad	.	.	.	.	.	.
.	.	.	.	4c	.	.	.
=150	=150	=150	=150	=150	=150	=150	=150
2G]	.	2r	.	2d	-ver-	1g]	.
2C	nos	2c	ad	2e-i	.	.	.
2D	.	2F	nos	2d	.	2r	.
2C	.	2G	con-	2e-i	.	2cc	in
=151	=151	=151	=151	=151	=151	=151	=151
2BB-y	con-	2B-y	-ver-	1d	-te,	2f	pa-
2.B-y	-ver-	2G	.	.	.	2g	.
.	.	2.d	.	2r	.	1b-y	-ti-
4A	.	.	.	.	.	.	.
2G	.	.	.	2d	con-	.	.
.	.	4B-y	.	.	.	.	.
=152	=152	=152	=152	=152	=152	=152	=152
2F	.	2c	.	2f	-ver-	2a	-bu-
2E	.	2G	.	2c	.	1g	.
1D	.	1A	.	1d	.	.	.
.	.	.	.	.	.	2f#i	.
=153	=153	=153	=153	=153	=153	=153	=153
00G	-te.	00G	-te.	00d	-te.	00g	-lo.
=154||	=154||	=154||	=154||	=154||	=154||	=154||	=154||
*M2/1	*	*M2/1	*	*M2/1	*	*M2/1	*
*met(C|)	*	*met(C|)	*	*met(C|)	*	*met(C|)	*
!!section: Versus 6: Et Jesum / Moritur
!!!OMD: Versus 6: Et Jesum / Moritur
0r	.	0r	.	0f	Et	0r	.
=155	=155	=155	=155	=155	=155	=155	=155
0r	.	0r	.	2.g	Je-	0b-y	Et
.	.	.	.	4f	.	.	.
.	.	.	.	4g	.	.	.
.	.	.	.	4a	.	.	.
.	.	.	.	[2b-y	.	.	.
=156	=156	=156	=156	=156	=156	=156	=156
0F	Et	0r	.	2b-]	.	0cc	Je-
.	.	.	.	4a	.	.	.
.	.	.	.	4g	.	.	.
.	.	.	.	1a	.	.	.
=157	=157	=157	=157	=157	=157	=157	=157
2.G	Je-	0r	.	2b-y	.	0b-y	.
.	.	.	.	2.B-y	.	.	.
4F	.	.	.	.	.	.	.
4G	.	.	.	.	.	.	.
4A	.	.	.	4c	.	.	.
[2B-y	.	.	.	4d	.	.	.
.	.	.	.	4B-y	.	.	.
=158	=158	=158	=158	=158	=158	=158	=158
2B-]	.	0r	.	0f	-sum,	0cc	.
4A	.	.	.	.	.	.	.
4G	.	.	.	.	.	.	.
1A	.	.	.	.	.	.	.
=159	=159	=159	=159	=159	=159	=159	=159
2B-y	.	0B-y	Mo-	2r	.	0dd	.
2BB-y	-sum,	.	.	1f	et	.	.
2r	.	.	.	.	.	.	.
2B-y	et	.	.	2d	.	.	.
=160	=160	=160	=160	=160	=160	=160	=160
2A	Je-	0c	.	2e	Je-	0cc	-sum,
2F	.	.	.	2f	.	.	.
1A	.	.	.	2e	.	.	.
.	.	.	.	2c	.	.	.
=161	=161	=161	=161	=161	=161	=161	=161
1G	-sum,	0d	-ri-	2g	.	0b-y	.
.	.	.	.	2.G	.	.	.
1r	.	.	.	.	.	.	.
.	.	.	.	4A	.	.	.
.	.	.	.	4B-y	.	.	.
.	.	.	.	4c	.	.	.
=162	=162	=162	=162	=162	=162	=162	=162
2r	.	0f	-tur	1d	-sum,	0a	.
2.D	be-	.	.	.	.	.	.
.	.	.	.	2r	.	.	.
4E	.	.	.	.	.	.	.
4F	.	.	.	2d	be-	.	.
4G	.	.	.	.	.	.	.
=163	=163	=163	=163	=163	=163	=163	=163
4A	.	0r	.	2c	-ne-	1r	.
4B-y	.	.	.	.	.	.	.
1c	.	.	.	1e	-di-	.	.
.	.	.	.	.	.	1g	be-
2B-y	.	.	.	2d	.	.	.
=164	=164	=164	=164	=164	=164	=164	=164
1c	.	0r	.	2e	.	1g	-ne-
.	.	.	.	1g	.	.	.
1A	-ne-	.	.	.	.	1a	.
.	.	.	.	2f#i	.	.	.
=165	=165	=165	=165	=165	=165	=165	=165
0G	-di-	0r	.	1g	.	0b-y	-di-
.	.	.	.	2.d	.	.	.
.	.	.	.	4e	.	.	.
=166	=166	=166	=166	=166	=166	=166	=166
0F	.	1c	cum	2f	.	0a	.
.	.	.	.	2F	.	.	.
.	.	1c	mo-	2.A	.	.	.
.	.	.	.	4B-y	.	.	.
=167	=167	=167	=167	=167	=167	=167	=167
0C	.	0e-X	-ri-	1c	-ctum,	0g	.
.	.	.	.	2r	.	.	.
.	.	.	.	2c	be-	.	.
=168	=168	=168	=168	=168	=168	=168	=168
1D	.	1d	-en-	1A	-ne-	[0f	-ctum
2BB-y	.	1d	-te	1B-y	.	.	.
[2B-y	.	.	.	.	.	.	.
=169	=169	=169	=169	=169	=169	=169	=169
2B-]	.	1r	.	1c	-di-	0f]	.
2A	.	.	.	.	.	.	.
2B-y	-ctum	[1d	Si-	2.B-y	.	.	.
[2BB-y	fru-	.	.	.	.	.	.
.	.	.	.	4c	.	.	.
=170	=170	=170	=170	=170	=170	=170	=170
4BB-]	.	1d]	.	4d	.	0r	.
4C	.	.	.	4e	.	.	.
4D	.	.	.	2.f	.	.	.
4E	.	.	.	.	.	.	.
1F	.	1c	-me-	.	.	.	.
.	.	.	.	4g	.	.	.
.	.	.	.	2a	.	.	.
=171	=171	=171	=171	=171	=171	=171	=171
1G	-ctum,	1B-y	-o-	2d	-ctum	1r	.
.	.	.	.	1g	fru-	.	.
1r	.	1A	.	.	.	1cc	-ctum
.	.	.	.	2f#i	.	.	.
=172	=172	=172	=172	=172	=172	=172	=172
2r	.	1G	-nis	2g	.	1b-y	.
2G	fru-	.	.	2d	.	.	.
4F	-ctum	1r	.	1f	-ctum	1a	.
4G	.	.	.	.	.	.	.
4A	.	.	.	.	.	.	.
4B-y	.	.	.	.	.	.	.
=173	=173	=173	=173	=173	=173	=173	=173
1.c	ven-	0r	.	1.e	ven-	0g	.
2B-y	.	.	.	2d	.	.	.
=174	=174	=174	=174	=174	=174	=174	=174
1A	.	0r	.	2e	.	1a	ven-
.	.	.	.	2f	.	.	.
1G	.	.	.	1g	.	1b-y	.
=175	=175	=175	=175	=175	=175	=175	=175
1F	-tris	1A	gla-	1c	.	0cc	-tris
1r	.	1F	-di-	1f	.	.	.
=176	=176	=176	=176	=176	=176	=176	=176
2r	.	0G	-o,	1d	-tris	1r	.
2.B-y	tu-	.	.	.	.	.	.
.	.	.	.	2r	.	1b-y	tu-
4A	.	.	.	.	.	.	.
2G	.	.	.	[2d	tu-	.	.
=177	=177	=177	=177	=177	=177	=177	=177
2F	.	0r	.	2d]	.	2a	.
2E	.	.	.	2G	.	1g	.
1D	-i,	.	.	1A	-i,	.	.
.	.	.	.	.	.	2f#i	.
=178	=178	=178	=178	=178	=178	=178	=178
2.G	no-	0r	.	2.B-y	no-	0g	-i,
4A	.	.	.	4c	.	.	.
2B-y	.	.	.	2d	.	.	.
2c	.	.	.	[2e-X	.	.	.
=179	=179	=179	=179	=179	=179	=179	=179
2.G	.	0r	.	2e-]	.	2.b-y	no-
.	.	.	.	2d	.	.	.
4A	.	.	.	.	.	4cc	.
2B-y	.	.	.	2G	.	2dd	.
[2c	.	.	.	[2g	.	[2ee-X	.
=180	=180	=180	=180	=180	=180	=180	=180
2c]	.	0r	.	4g]	.	2ee-]	.
.	.	.	.	4a	.	.	.
2d	.	.	.	2.b-y	.	1dd	.
1e-X	.	.	.	.	.	.	.
.	.	.	.	4a	.	.	.
.	.	.	.	[2g	.	2cc	.
=181	=181	=181	=181	=181	=181	=181	=181
1d	.	0B-y	mo-	2g]	.	0dd	-bis
.	.	.	.	2f	.	.	.
1G	-bis	.	.	1g	-bis	.	.
=182	=182	=182	=182	=182	=182	=182	=182
2r	.	0c	.	2r	.	0r	.
1A	post	.	.	2.e	post	.	.
.	.	.	.	4c	.	.	.
2F	.	.	.	[2f	.	.	.
=183	=183	=183	=183	=183	=183	=183	=183
2B-y	.	0d	-ri-	4f]	.	1r	.
.	.	.	.	4d	.	.	.
2G	.	.	.	2.g	.	.	.
1B-y	.	.	.	.	.	2r	.
.	.	.	.	4f	.	.	.
.	.	.	.	2b-y	.	[2dd	post
=184	=184	=184	=184	=184	=184	=184	=184
1F	hoc	[0f	-tur	1a	.	2dd]	.
.	.	.	.	.	.	1cc	.
2r	.	.	.	1d	.	.	.
2B-y	e-	.	.	.	.	2b-y	.
=185	=185	=185	=185	=185	=185	=185	=185
2A	-xi-	0f]	.	1a	hoc	0cc	hoc
2.F	.	.	.	.	.	.	.
.	.	.	.	2r	.	.	.
4G	.	.	.	.	.	.	.
4A	.	.	.	2f	e-	.	.
4B-y	.	.	.	.	.	.	.
=186	=186	=186	=186	=186	=186	=186	=186
2.c	.	0r	.	2e	-xi-	1g	e-
.	.	.	.	2.c	.	.	.
4B-y	.	.	.	.	.	.	.
1A	-li-	.	.	.	.	1a	.
.	.	.	.	4d	.	.	.
.	.	.	.	4e	.	.	.
.	.	.	.	4f	.	.	.
=187	=187	=187	=187	=187	=187	=187	=187
2G	.	0r	.	2g	.	0b-y	-xi-
2.B-y	.	.	.	1f	.	.	.
4A	.	.	.	.	.	.	.
2G	.	.	.	2e	-li-	.	.
=188	=188	=188	=188	=188	=188	=188	=188
1F	-um,	1c	cum	1f	-um,	0a	.
1F	e-	1c	mo-	2r	.	.	.
.	.	.	.	2f	e-	.	.
=189	=189	=189	=189	=189	=189	=189	=189
1E-X	-xi-	0e-X	-ri-	2B-y	-xi-	1g	.
.	.	.	.	2B-y	-li-	.	.
1E-i	-li-	.	.	[1B-y	-um,	1g	-li-
=190	=190	=190	=190	=190	=190	=190	=190
1BB-y	-um,	0d	-en-	1B-]	.	0f	-um
2r	.	.	.	2r	.	.	.
2B-y	e-	.	.	2d	e-	.	.
=191	=191	=191	=191	=191	=191	=191	=191
2G	-xi-	0d	-te	2g	-xi-	1r	.
2G	-li-	.	.	2g	-li-	.	.
2D	-um	.	.	1f	-um	1a	o-
2d	o-	.	.	.	.	.	.
=192	=192	=192	=192	=192	=192	=192	=192
2B-y	.	0r	.	2d	o-	1g	.
2c	.	.	.	1g	-sten-	.	.
1A	.	.	.	.	.	1a	.
.	.	.	.	2f#i	.	.	.
=193	=193	=193	=193	=193	=193	=193	=193
0G	-sten-	1r	.	2g	.	0b-y	.
.	.	.	.	4G	.	.	.
.	.	.	.	4A	.	.	.
.	.	[1d	Si-	4B-y	.	.	.
.	.	.	.	4c	.	.	.
.	.	.	.	4d	.	.	.
.	.	.	.	4e	.	.	.
=194	=194	=194	=194	=194	=194	=194	=194
0F	.	1d]	.	1f	-de,	0a	.
.	.	1c	-me-	2r	.	.	.
.	.	.	.	2f	o-	.	.
=195	=195	=195	=195	=195	=195	=195	=195
2.G	.	0B-y	-o-	2.d	-sten-	0g	.
4E-X	.	.	.	4e-X	.	.	.
1E-i	.	.	.	1e-i	.	.	.
=196	=196	=196	=196	=196	=196	=196	=196
2.F	.	0A	.	2.c	.	1a	.
4D	.	.	.	4d	.	.	.
1D	.	.	.	1d	.	1f	-sten-
=197	=197	=197	=197	=197	=197	=197	=197
2.E-i	.	0G	-nis	2.B-y	.	0g	-de,
4C	.	.	.	4e-i	.	.	.
1C	.	.	.	1e-i	.	.	.
=198	=198	=198	=198	=198	=198	=198	=198
2.F	.	1A	gla-	2.c	.	1r	.
4D	.	.	.	4d	.	.	.
1D	-de,	1F	-di-	1d	.	1a	o-
=199	=199	=199	=199	=199	=199	=199	=199
2r	.	1G	-o,	4B-y	.	1g	.
.	.	.	.	4c	.	.	.
2G	o-	.	.	4d	.	.	.
.	.	.	.	4e	.	.	.
2F	-sten-	2r	.	2.f	.	2a	.
2BB-y	.	2d	gla-	.	.	2b-y	.
.	.	.	.	4F	.	.	.
=200	=200	=200	=200	=200	=200	=200	=200
2F	.	2c	.	2A	.	2a	.
2G	.	2B-y	.	2B-y	.	2g	.
2F	.	1A	-di-	2c	.	2a	.
2D	.	.	.	2d	.	2f	-sten-
=201	=201	=201	=201	=201	=201	=201	=201
2.E-X	.	[0Gl	-o.	2B-y	.	[0gl	-de.
.	.	.	.	2.e-X	.	.	.
4C	.	.	.	.	.	.	.
1C	.	.	.	.	.	.	.
.	.	.	.	4c	.	.	.
.	.	.	.	2c	.	.	.
=202	=202	=202	=202	=202	=202	=202	=202
[0Gl	-de.	0G_	.	2.d	.	0g_	.
.	.	.	.	4B-y	.	.	.
.	.	.	.	2B-y	.	.	.
.	.	.	.	2e-i	.	.	.
=203	=203	=203	=203	=203	=203	=203	=203
00G]	.	00G]	.	00d	-de.	00g]	.
=204||	=204||	=204||	=204||	=204||	=204||	=204||	=204||
*M2/1	*	*M2/1	*	*M2/1	*	*M2/1	*
*met(C|)	*	*met(C|)	*	*met(C|)	*	*met(C|)	*
!!section: Versus 7: O clemens / Assumpta nunc
!!!OMD: Versus 7: O clemens / Assumpta nunc
[0D	O,	0d	As-	[0a	O	[0dd	O
=205	=205	=205	=205	=205	=205	=205	=205
1D]	.	1f	-sum-	1a]	.	0dd_	.
[1G	.	1g	-pta	1b-y	.	.	.
=206	=206	=206	=206	=206	=206	=206	=206
0G]	.	0g	nunc	2B-y	.	0dd_	.
.	.	.	.	1b-y	cle-	.	.
.	.	.	.	4a	.	.	.
.	.	.	.	4g	.	.	.
=207	=207	=207	=207	=207	=207	=207	=207
1.D	.	1r	.	2.f	.	0dd]	.
.	.	.	.	4e	.	.	.
.	.	[1f	a	2d	.	.	.
2E	.	.	.	4c	.	.	.
.	.	.	.	4B-y	.	.	.
=208	=208	=208	=208	=208	=208	=208	=208
1F	.	1f]	.	2A	.	[0cc	.
.	.	.	.	1a	.	.	.
1C	.	1e	.	.	.	.	.
.	.	.	.	2g	.	.	.
=209	=209	=209	=209	=209	=209	=209	=209
0F	.	[0f	Fi-	1a	-mens,	0cc]	.
.	.	.	.	2r	.	.	.
.	.	.	.	2a	o	.	.
=210	=210	=210	=210	=210	=210	=210	=210
1BB-y	.	1f]	.	1b-y	.	[0dd	.
2r	.	1d	-li-	1f	.	.	.
[2B-y	o	.	.	.	.	.	.
=211	=211	=211	=211	=211	=211	=211	=211
2B-]	.	1d	-o	1g	.	0dd]	.
2G	.	.	.	.	.	.	.
2.B-y	.	1d	per	1f	.	.	.
4c	.	.	.	.	.	.	.
=212	=212	=212	=212	=212	=212	=212	=212
2d	.	0B-y	cho-	2r	.	0ff	.
2D	.	.	.	2f	cle-	.	.
2BB-y	.	.	.	4d	.	.	.
.	.	.	.	4e	.	.	.
2D	.	.	.	4f	.	.	.
.	.	.	.	4g	.	.	.
=213	=213	=213	=213	=213	=213	=213	=213
2C	.	0c	.	2a	.	0ee	.
2c	.	.	.	2g	.	.	.
2A	.	.	.	2a	.	.	.
2c	.	.	.	2g	-mens,	.	.
=214	=214	=214	=214	=214	=214	=214	=214
1.B-y	.	0d	-ros	1r	.	0ff	.
.	.	.	.	[1b-y	o	.	.
2BB-y	.	.	.	.	.	.	.
=215	=215	=215	=215	=215	=215	=215	=215
0E-X	.	0G	.	2b-]	.	0gg	.
.	.	.	.	2B-y	.	.	.
.	.	.	.	1e-X	.	.	.
=216	=216	=216	=216	=216	=216	=216	=216
1BB-y	cle-	1B-y	An-	1d	cle-	0ff	cle-
1D	.	1F	-ge-	2.A	.	.	.
.	.	.	.	4B-y	.	.	.
=217	=217	=217	=217	=217	=217	=217	=217
1C	.	0G	-lo-	1c	-mens,	1ee	.
1BB-y	.	.	.	2r	.	[1dd	.
.	.	.	.	2g	o	.	.
=218	=218	=218	=218	=218	=218	=218	=218
0C	.	[0Gl	-rum.	4g	cle-	2dd]	.
.	.	.	.	4f	.	.	.
.	.	.	.	4e	.	4cc	.
.	.	.	.	4d	.	4b-y	.
.	.	.	.	1e	.	1cc	.
=219	=219	=219	=219	=219	=219	=219	=219
00G	-mens,	00G]	.	00d	-mens,	00dd	-mens,
=220||	=220||	=220||	=220||	=220||	=220||	=220||	=220||
*M2/1	*	*M2/1	*	*M2/1	*	*M2/1	*
*met(C|)	*	*met(C|)	*	*met(C|)	*	*met(C|)	*
!!section: Versus 8: Stellato sedet / O pia
!!!OMD: Versus 8: Stellato sedet / O pia
0r	.	0r	.	0g	o	0r	.
=221	=221	=221	=221	=221	=221	=221	=221
0r	.	0r	.	0f	.	0r	.
=222	=222	=222	=222	=222	=222	=222	=222
0G	o	0r	.	1g	.	0r	.
.	.	.	.	1b-y	.	.	.
=223	=223	=223	=223	=223	=223	=223	=223
0F	.	0r	.	0a	.	0r	.
=224	=224	=224	=224	=224	=224	=224	=224
1G	.	0r	.	2.b-y	.	0b-y	Stel-
.	.	.	.	4a	.	.	.
1B-y	.	.	.	2g	.	.	.
.	.	.	.	[2f	.	.	.
=225	=225	=225	=225	=225	=225	=225	=225
0A	.	0r	.	2f]	.	0cc	-la-
.	.	.	.	4e	.	.	.
.	.	.	.	4d	.	.	.
.	.	.	.	1e	.	.	.
=226	=226	=226	=226	=226	=226	=226	=226
2.B-y	.	0d	O	2.d	.	0dd	-to
4A	.	.	.	4c	.	.	.
2G	.	.	.	2B-y	.	.	.
[2F	.	.	.	[2A	.	.	.
=227	=227	=227	=227	=227	=227	=227	=227
2F]	.	0c	.	2A]	.	0r	.
4E	.	.	.	4G	.	.	.
4D	.	.	.	4F	.	.	.
1E	.	.	.	1G	.	.	.
=228	=228	=228	=228	=228	=228	=228	=228
0D	.	1d	.	1A	.	0ff	se-
.	.	1f	.	[1a	pi-	.	.
=229	=229	=229	=229	=229	=229	=229	=229
0A	.	1e	.	0a]	.	0cc	-det
.	.	1f	.	.	.	.	.
=230	=230	=230	=230	=230	=230	=230	=230
1.G	.	0g	.	[0d	.	0b-y	.
4F	.	.	.	.	.	.	.
4E	.	.	.	.	.	.	.
=231	=231	=231	=231	=231	=231	=231	=231
2.D	.	0f	pi-	1d]	.	1r	.
4E	.	.	.	.	.	.	.
4F	.	.	.	1A	-a,	[1cc	so-
4E	.	.	.	.	.	.	.
4F	.	.	.	.	.	.	.
4G	.	.	.	.	.	.	.
=232	=232	=232	=232	=232	=232	=232	=232
4A	.	0e	.	2r	.	1cc]	.
4G	.	.	.	.	.	.	.
4A	.	.	.	2a	o	.	.
4B-y	.	.	.	.	.	.	.
2c	.	.	.	2g	.	1cc	-li-
2A	.	.	.	2a	.	.	.
=233	=233	=233	=233	=233	=233	=233	=233
2.B-y	.	0d	.	2f	.	0dd	-o.
.	.	.	.	1b-y	.	.	.
4A	.	.	.	.	.	.	.
2G	.	.	.	.	.	.	.
[2F	pi-	.	.	[2a	.	.	.
=234	=234	=234	=234	=234	=234	=234	=234
2F]	.	0c	.	2a]	.	0r	.
4E	.	.	.	4g	.	.	.
4D	.	.	.	4f	.	.	.
2E	.	.	.	2g	.	.	.
2F	.	.	.	2a	.	.	.
=235	=235	=235	=235	=235	=235	=235	=235
0BB-y	-a,	[0dl	-a,	1b-y	pi-	[0ddl	-o.
.	.	.	.	1B-y	.	.	.
=236	=236	=236	=236	=236	=236	=236	=236
00D	.	00d]	.	00A	-a,	00dd]	.
=237||	=237||	=237||	=237||	=237||	=237||	=237||	=237||
*M2/1	*	*M2/1	*	*M2/1	*	*M2/1	*
*met(C|)	*	*met(C|)	*	*met(C|)	*	*met(C|)	*
!!section: Versus 9: O dulcis / Protectrix peccatorum
!!!OMD: Versus 9: O dulcis / Protectrix peccatorum
0r	.	0r	.	0a	o	0r	.
=238	=238	=238	=238	=238	=238	=238	=238
1r	.	0r	.	1d	.	0r	.
[1A	o,	.	.	1f	.	.	.
=239	=239	=239	=239	=239	=239	=239	=239
1A]	.	0r	.	1e	.	0r	.
1D	.	.	.	[1d	.	.	.
=240	=240	=240	=240	=240	=240	=240	=240
1F	.	0r	.	1d]	.	0r	.
1E	.	.	.	1c	.	.	.
=241	=241	=241	=241	=241	=241	=241	=241
[0D	.	0r	.	1d	.	0r	.
.	.	.	.	1a	.	.	.
=242	=242	=242	=242	=242	=242	=242	=242
0D]	.	0r	.	1d	.	0dd	o,
.	.	.	.	1f	.	.	.
=243	=243	=243	=243	=243	=243	=243	=243
1C	.	0r	.	1e	.	1g	.
1G	.	.	.	[1d	.	1b-y	.
=244	=244	=244	=244	=244	=244	=244	=244
1F	.	0r	.	2d]	.	1a	.
.	.	.	.	1c	.	.	.
1E-X	.	.	.	.	.	[1g	.
.	.	.	.	[2B-y	.	.	.
=245	=245	=245	=245	=245	=245	=245	=245
0D	.	0d	Pro-	2B-]	.	1g]	.
.	.	.	.	4A	.	.	.
.	.	.	.	4G	.	.	.
.	.	.	.	2A	.	1f#i	.
.	.	.	.	2d	.	.	.
=246	=246	=246	=246	=246	=246	=246	=246
1C	.	1G	.	2e	.	0g	.
.	.	.	.	2c	.	.	.
1G	.	1B-y	.	2d	.	.	.
.	.	.	.	2e	.	.	.
=247	=247	=247	=247	=247	=247	=247	=247
1F	.	1A	.	2f	.	0r	.
.	.	.	.	2.d	.	.	.
1E-i	.	[1G	.	.	.	.	.
.	.	.	.	4c	.	.	.
.	.	.	.	[2c	.	.	.
=248	=248	=248	=248	=248	=248	=248	=248
0D	.	1G]	.	2c]	.	0r	.
.	.	.	.	4BnXi	.	.	.
.	.	.	.	4A	.	.	.
.	.	1F	.	1Bni	.	.	.
=249	=249	=249	=249	=249	=249	=249	=249
1C	.	0G	.	1c	.	0r	.
2r	.	.	.	2d	.	.	.
2G	o,	.	.	2e	.	.	.
=250	=250	=250	=250	=250	=250	=250	=250
2.F	.	1A	.	1f	.	0r	.
4E	.	.	.	.	.	.	.
1D	.	1B-y	.	1f	dul-	.	.
=251	=251	=251	=251	=251	=251	=251	=251
1C	.	1c	.	2.e	-cis,	[0g	o
.	.	.	.	4f	.	.	.
2r	.	1c	-tec-	2g	.	.	.
2C	o	.	.	2c	o,	.	.
=252	=252	=252	=252	=252	=252	=252	=252
1G	dul-	1B-y	-trix	2d	.	1g]	.
.	.	.	.	2e	.	.	.
1F	.	1c	.	1f	.	[1a	.
=253	=253	=253	=253	=253	=253	=253	=253
1D	.	0d	.	2r	.	1a]	.
.	.	.	.	2f	o	.	.
1G	.	.	.	1g	dul-	1b-y	.
=254	=254	=254	=254	=254	=254	=254	=254
1.A	.	0r	.	2e	.	1cc	.
.	.	.	.	2f	.	.	.
.	.	.	.	2e	.	1cc	dul-
2F	.	.	.	2a	.	.	.
=255	=255	=255	=255	=255	=255	=255	=255
1G	.	0r	.	2d	.	1b-y	-cis
.	.	.	.	2g	.	.	.
1A	.	.	.	2f	.	1cc	.
.	.	.	.	2e	.	.	.
=256	=256	=256	=256	=256	=256	=256	=256
1B-y	.	0r	.	2d	-cis	0dd	.
.	.	.	.	2.f	Vir-	.	.
1BB-y	-cis	.	.	.	.	.	.
.	.	.	.	4e	.	.	.
.	.	.	.	4d	.	.	.
.	.	.	.	4c	.	.	.
=257	=257	=257	=257	=257	=257	=257	=257
0E-X	Vir-	1G	pec-	1.B-y	.	0g	Vir-
.	.	1G	-ca-	.	.	.	.
.	.	.	.	2c	.	.	.
=258	=258	=258	=258	=258	=258	=258	=258
0D	-go,	1B-y	-to-	0d	-go,	0f	-go,
.	.	1A	.	.	.	.	.
=259	=259	=259	=259	=259	=259	=259	=259
0G	Ma-	0B-y	.	2r	.	0g	Ma-
.	.	.	.	2d	Ma-	.	.
.	.	.	.	2.d	-ter	.	.
.	.	.	.	4e	.	.	.
=260	=260	=260	=260	=260	=260	=260	=260
0D	-ter	0A	-rum.	4f	.	0a	-ter
.	.	.	.	4d	.	.	.
.	.	.	.	2.f	.	.	.
.	.	.	.	4e	.	.	.
.	.	.	.	4d	.	.	.
.	.	.	.	4c	.	.	.
=261	=261	=261	=261	=261	=261	=261	=261
1r	.	0G	.	2B-y	.	1r	.
.	.	.	.	2.b-y	Ma-	.	.
2r	.	.	.	.	.	2r	.
.	.	.	.	4a	.	.	.
2G	Ma-	.	.	4g	.	2b-y	Ma-
.	.	.	.	4f	.	.	.
=262	=262	=262	=262	=262	=262	=262	=262
2.A	-ri-	0r	.	2e	.	1.cc	-ri-
.	.	.	.	2.a	-ri-	.	.
4B-y	.	.	.	.	.	.	.
2c	.	.	.	.	.	.	.
.	.	.	.	4g	.	.	.
2d	.	.	.	4f	.	2a	.
.	.	.	.	4e	.	.	.
=263	=263	=263	=263	=263	=263	=263	=263
2.B-y	.	0r	.	2d	.	1b-y	.
.	.	.	.	2.f	.	.	.
4c	.	.	.	.	.	.	.
2d	.	.	.	.	.	1a	.
.	.	.	.	4e	.	.	.
2D	.	.	.	4d	.	.	.
.	.	.	.	4c	.	.	.
=264	=264	=264	=264	=264	=264	=264	=264
1E-X	.	[0Gl	-rum.	1B-y	.	[0gl	-a.
1C	.	.	.	1e-i	.	.	.
=265	=265	=265	=265	=265	=265	=265	=265
00Gl	-a.	00G]	.	00dl	-a.	00g]	.
==	==	==	==	==	==	==	==
*-	*-	*-	*-	*-	*-	*-	*-
!!!system-decoration: [*]
!!!RDF**kern: i = editorial accidental
!!!RDF**kern: l = terminal long
!!!!PTL: <i> New Senfl Edition: Motets for Four Voices (N-V) </i>
!!!PPR: Hollitzer Verlag
!!!PC#: Denkmäler der Tonkunst in Österreich 163.2
!!!PDT: 2022
!!!PED: Scott Lee Edwards, Stefan Gasch, and Sonja Tröster
!!!YEC: Copyright 2022 Denkmäler der Tonkunst in Österreich
!!!YEM: CC-BY-NC 4.0 (https://creativecommons.org/licenses/by-nc/4.0/legalcode)
!!!EED: Benjamin Ory
!!!EEV: 2025/2/24
!!!verovio: header encoded
!!!header-left: @{PTL}\n@{PED}, eds.\n@{PC#} (@{PDT})&nbsp;\n
!!!header-right:
!!!header-center: